X:1
T:Title
%%score ( 1 2 ) ( 3 4 )
L:1/8
Q:1/4=68
M:3/8
K:Eb
V:1 treble nm="Choir Aahs, Staff"
V:2 treble 
V:3 bass nm="Choir Aahs, Staff-1"
V:4 bass 
V:1
 [EG]2 [DF] | E2 [EG] | G-[Ge][Bd] | [Ac]3 | [GB][Ac][GB] | [EG]2 [EG] | c z z | [DF]3 | %8
w: By~W.~T.~Porter *||||||||
 [EG]2 [FB] | [Ee]2 [Ge] | [Fe]2 [Fe] | [Fd]3 | e z z | c z z | [EF]2 [DF] | [B,E]3 |] %16
w: ||||||||
V:2
 x3 | x3 | B z z | x3 | x3 | x3 | E-[EB][EG] | x3 | x3 | x3 | x3 | x3 | G-[GB][EG] | E-[EB][EG] | %14
 x3 | x3 |] %16
V:3
 [E,B,]2 [F,B,] | [G,B,]2 [E,B,] | [E,E]2 [G,E] | [A,E]3 | [E,E]2 [E,E] | [E,B,]2 [E,B,] | %6
 A,G,[E,B,] | [B,,B,]3 | [E,B,]2 [D,B,] | [C,C]2 [C,C] | [F,=A,]2 [F,A,] | [B,,B,]3 | %12
 [E,B,]2 [E,B,] | A,G,[E,B,] | [A,,C]2 [B,,A,] | [E,G,]3 |] %16
V:4
 x3 | x3 | x3 | x3 | x3 | x3 | E,2 z | x3 | x3 | x3 | x3 | x3 | x3 | E,2 z | x3 | x3 |] %16

